X:1
T:Skyrim
T:Skyrim
T:Jeremy Soule
T:Based on the original game score
C:Jeremy Soule
%%score 1 { 2 | 3 }
L:1/8
M:6/4
K:Eb
V:1 treble nm="Violin" snm="Vln."
V:2 treble nm="Piano" snm="Pno."
V:3 bass 
V:1
"^A" z12 | z12 | z12 | z12 | c2 d2 e8 | e2 f2 g8 | g2 b2 f6 gf | e2 d2 c8 | c2 d2 e8 | e2 f2 g8 | %10
 G2 B2 c8 | B2 d2 c8 | c2 d2 e4 d2 d2 | c2 c2 B4 A4 | G4 F8 | E2 G2 F8 |"^B" ed e4 ed e4 | %17
 de f2 e2 d2 c4 | cB c4 cB c4 | Bc d2 e2 B2 c4 |"^C" c2 .g2 gg g z f2 f2 | f2 .e2 ee e z d2 d2 | %22
 d2 .g2 gg g z f2 f2 | f2 .e2 ee e z d2 d2 | d2 d2 .e2 z2 d2 .e2 | z2 f2 d2 d2 .e2 z2 | %26
 d2 .e2 z2 d2 .e2 z2 | f2 .d2 d2 .e2 z4 |"^D" e6 d6 | c12 | d6 c6 | B12 | e6 d6 | c12 | F12 | G12 | %36
 .c2 .c.c.c.c .c2 .c.c.c.c | .c2 .c2 .c2 .c2 .c2 .c2 | .c2 .c.c.c.c .c2 .c.c.c.c | %39
 .c2 .c2 .c2 .c2 .c2 .c2 | .e2 .e.e.e.e .e2 .e.e.e.e | .d2 .d2 .d2 .c2 .c2 .c2 | %42
 .e2 .e.e.e.e .e2 .e.e.e.e | .d2 .d2 .d2 .c2 c2 d2 | e8 e2 f2 | g8 g2 e2 | d8 e2 d2 | c12 | z12 | %49
 z12 | z12 | z12 | z12 | z12 |] %54
V:2
 z12 | z12 | z12 | z12 | z12 | z12 | z12 | z12 | z12 | z12 | z12 | z12 | z12 | z12 | z12 | z12 | %16
 z12 | z12 | z12 | z12 | z2 .e2 ee e z d2 d2 | d2 .c2 cc c z B2 B2 | B2 .A2 AA A z G2 G2 | %23
 G2 .F2 FF F z E2 E2 | E2 z2 z8 | z12 | z12 | z12 | z12 | z12 | z12 | z12 | z12 | z12 | z12 | z12 | %36
 z12 | z12 | z12 | z12 | z12 | z12 | z12 | z12 | z12 | z12 | z12 | z12 | z12 | c2 d2 e8 | %50
 e2 f2 g8 | g2 b2 f8 | g/f/e d c8 z | z12 |] %54
V:3
!ped! C,2 G,2 E4 C4!ped-up! |!ped! C,2 G,2 E4 C4!ped-up! |!ped! C,2 G,2 E4 C4!ped-up! | %3
!ped! C,2 G,2 E4 C4!ped-up! |!ped! C,2 G,2 E4 C4!ped-up! | C,2 B,,2!ped! E,2 B,2 G4!ped-up! | %6
!ped! E4 B,,2 F,2 D4!ped-up! |!ped! B,4 F,,2 C,2 A,4!ped-up! |!ped! F,4 C,2 G,2 E4!ped-up! | %9
 C,2 B,,2!ped! E,2 B,2 G4!ped-up! |!ped! E4 A,,2 E,2 C4!ped-up! |!ped! A,4 F,,2 C,2 A,4!ped-up! | %12
!ped! F,4 C,2 G,2 E4!ped-up! |!ped! C4 E,2 B,2 G4!ped-up! |!ped! E4 A,,2 E,2 C4!ped-up! | %15
!ped! A,4 B,,2 F,2 D4!ped-up! | B,2!ped! C,2 G,2 C2 A,,2 E,2!ped-up! | %17
!ped! B,2 B,,2 F,2 B,2 F,,2 C,2!ped-up! |!ped! F,2 C,2 G,2 C2 A,,2 E,2!ped-up! | %19
!ped! A,2 B,,2 F,2 B,2 F,,2 C,2!ped-up! |!ped! F,2 C,2 G,2 C2 C,2 G,2!ped-up! | %21
!ped! C2 C,2 G,2 C2 B,,2 F,2!ped-up! |!ped! B,2 A,,2 E,2 A,2 A,,2 E,2!ped-up! | %23
!ped! A,2 A,,2 E,2 A,2 B,,2 F,2!ped-up! | B,2 C,2 G,2 C2 C,2 G,2 | C2 F,,2 C,2 G,,2 D,2 G,2 | %26
 C,2 G,2 C2 C,2 G,2 C2 | B,,2 F,2 B,2 B,,2 F,2 B,2 | C,2 G,2 C2 C,2 G,2 C2 | %29
 C,2 G,2 C2 C,2 G,2 C2 | G,,2 D,2 G,2 G,,2 D,2 G,2 | G,,2 D,2 G,2 G,,2 D,2 G,2 | %32
 C,2 G,2 C2 C,2 G,2 C2 | C,2 G,2 C2 C,2 G,2 C2 | G,,2 D,2 G,2 G,,2 D,2 G,2 | %35
 B,,2 F,2 B,2 B,,2 F,2 B,2 | C,2 G,2 C2 A,,2 E,2 A,2 | B,,2 F,2 B,2 F,,2 C,2 F,2 | %38
 C,2 G,2 C2 A,,2 E,2 A,2 | B,,2 F,2 B,2 F,,2 C,2 F,2 | C,2 G,2 C2 A,,2 E,2 A,2 | %41
 B,,2 F,2 B,2 F,,2 C,2 F,2 | C,2 G,2 C2 A,,2 E,2 A,2 | B,,2 F,2 B,2 F,,2 C,2 F,2 | %44
!ped! C,2 G,2 E4 C4!ped-up! |!ped! E,2 B,2 G4 E4!ped-up! | B,,2!ped! F,2 D4 B,4!ped-up! | C,12 | %48
!ped! C,2 G,2 E4 C4!ped-up! |!ped! C,2 G,2 E4 C4!ped-up! |!ped! C,2 B,,2 E,2 B,2 G4!ped-up! | %51
!ped! E4 B,,2 F,2 D4!ped-up! | B,4!ped! F,,2 C,2 A,4!ped-up! | !arpeggio!!fermata![F,A,C]12 |] %54

